gama.ui.shared/icons_svg/light/editor/add.experiment.svg

<svg height="24.75" viewBox="-13.478 -3263.623 24.75 24.75" width="24.75" xmlns="http://www.w3.org/2000/svg"><g fill="none"><circle cx="-1.103" cy="-3251.248" fill="#666" r="8"/><circle cx="-1.103" cy="-3251.248" r="8"/><circle cx="-1.103" cy="-3251.248" fill="#fff" r="8"/><circle cx="-1.103" cy="-3251.248" r="8"/><path d="m-.7223139-3251.629h2.6666667c.2103942 0 .3809522.1705.3809522.381 0 .2103-.170558.381-.3809522.381h-2.6666667v2.6666c0 .2104-.1705582.3809-.3809524.3809s-.3809524-.1705-.3809524-.3809v-2.6666h-2.6666666c-.2103942 0-.3809524-.1707-.3809524-.381 0-.2105.1705582-.381.3809524-.381h2.6666666v-2.6667c0-.2103.1705582-.3809.3809524-.3809s.3809524.1706.3809524.3809zm-.3809524 8.381c-4.4182777 0-7.9999997-3.5818-7.9999997-8 0-4.4183 3.581722-8 7.9999997-8 4.418278 0 8.0000003 3.5817 8.0000003 8 0 4.4182-3.5817223 8-8.0000003 8zm0-.762c3.9974896 0 7.2380953-3.2406 7.2380953-7.238 0-3.9976-3.2406057-7.238-7.2380953-7.238-3.9974897 0-7.2380957 3.2404-7.2380957 7.238 0 3.9974 3.240606 7.238 7.2380957 7.238z" fill="#518736"/></g></svg>

<?xml version="1.0" encoding="UTF-8" standalone="no"?>
<!DOCTYPE svg PUBLIC "-//W3C//DTD SVG 1.1//EN" "http://www.w3.org/Graphics/SVG/1.1/DTD/svg11.dtd">
<svg xmlns="http://www.w3.org/2000/svg" xmlns:dc="http://purl.org/dc/elements/1.1/" version="1.1" xmlns:xl="http://www.w3.org/1999/xlink" viewBox="-13.478266 -3263.623 24.75 24.75" width="24.75" height="24.75">
  <defs/>
  <g id="SOURCES" stroke-dasharray="none" stroke-opacity="1" stroke="none" fill="none" fill-opacity="1">
    <title>SOURCES</title>
    <g id="SOURCES_Light">
      <title>Light</title>
      <g id="Graphic_12388"/>
      <g id="Graphic_12389">
        <circle cx="-1.1032663" cy="-3251.248" r="8.0000070208016" fill="#666"/>
        <circle cx="-1.1032663" cy="-3251.248" r="8.0000070208016" stroke="black" stroke-linecap="round" stroke-linejoin="round" stroke-width="0"/>
      </g>
      <g id="Graphic_12387">
        <circle cx="-1.1032663" cy="-3251.248" r="8.0000070208016" fill="white"/>
        <circle cx="-1.1032663" cy="-3251.248" r="8.0000070208016" stroke="black" stroke-linecap="round" stroke-linejoin="round" stroke-width="0"/>
      </g>
      <g id="Graphic_12386">
        <path d="M -.7223139 -3251.629 L 1.9443528 -3251.629 C 2.154747 -3251.629 2.325305 -3251.4585 2.325305 -3251.248 C 2.325305 -3251.0377 2.154747 -3250.867 1.9443528 -3250.867 L -.7223139 -3250.867 L -.7223139 -3248.2004 C -.7223139 -3247.99 -.8928721 -3247.8195 -1.1032663 -3247.8195 C -1.3136605 -3247.8195 -1.4842187 -3247.99 -1.4842187 -3248.2004 L -1.4842187 -3250.867 L -4.1508853 -3250.867 C -4.3612795 -3250.867 -4.5318377 -3251.0377 -4.5318377 -3251.248 C -4.5318377 -3251.4585 -4.3612795 -3251.629 -4.1508853 -3251.629 L -1.4842187 -3251.629 L -1.4842187 -3254.2957 C -1.4842187 -3254.506 -1.3136605 -3254.6766 -1.1032663 -3254.6766 C -.8928721 -3254.6766 -.7223139 -3254.506 -.7223139 -3254.2957 Z M -1.1032663 -3243.248 C -5.521544 -3243.248 -9.103266 -3246.8298 -9.103266 -3251.248 C -9.103266 -3255.6663 -5.521544 -3259.248 -1.1032663 -3259.248 C 3.3150117 -3259.248 6.896734 -3255.6663 6.896734 -3251.248 C 6.896734 -3246.8298 3.3150117 -3243.248 -1.1032663 -3243.248 Z M -1.1032663 -3244.01 C 2.8942233 -3244.01 6.134829 -3247.2506 6.134829 -3251.248 C 6.134829 -3255.2456 2.8942233 -3258.486 -1.1032663 -3258.486 C -5.100756 -3258.486 -8.341362 -3255.2456 -8.341362 -3251.248 C -8.341362 -3247.2506 -5.100756 -3244.01 -1.1032663 -3244.01 Z" fill="#518736"/>
      </g>
    </g>
  </g>
</svg>
